icons/file-code-24.svg

<svg width="24" height="24" viewBox="0 0 24 24" xmlns="http://www.w3.org/2000/svg">
  <path fill-rule="evenodd" clip-rule="evenodd" d="M3 3C3 1.89543 3.89543 1 5 1H14.9822C15.5127 1 16.0214 1.21071 16.3964 1.58579L20.4142 5.60355C20.7893 5.97863 21 6.48733 21 7.01777V21C21 22.1046 20.1046 23 19 23H4.75C4.33579 23 4 22.6642 4 22.25C4 21.8358 4.33579 21.5 4.75 21.5H19C19.2761 21.5 19.5 21.2761 19.5 21V8.5H15.5C14.3954 8.5 13.5 7.60457 13.5 6.5V2.5H5C4.72386 2.5 4.5 2.72386 4.5 3V9.25C4.5 9.66421 4.16421 10 3.75 10C3.33579 10 3 9.66421 3 9.25V3ZM15 2.50032V6.5C15 6.77614 15.2239 7 15.5 7H19.4997C19.4952 6.87384 19.4431 6.75379 19.3536 6.66421L15.3358 2.64645C15.2462 2.55687 15.1262 2.5048 15 2.50032Z"/>
  <path d="M4.53036 12.2397C4.81222 12.5432 4.79464 13.0177 4.49111 13.2996L1.85221 15.75L4.49111 18.2004C4.79464 18.4823 4.81222 18.9568 4.53036 19.2603C4.24851 19.5639 3.77396 19.5815 3.47043 19.2996L0.239662 16.2996C0.0868364 16.1577 0 15.9586 0 15.75C0 15.5415 0.0868364 15.3423 0.239662 15.2004L3.47043 12.2004C3.77396 11.9186 4.24851 11.9361 4.53036 12.2397Z"/>
  <path d="M8.50889 13.2996C8.20536 13.0177 8.18778 12.5432 8.46964 12.2397C8.75149 11.9361 9.22604 11.9186 9.52957 12.2004L12.7603 15.2004C12.9132 15.3423 13 15.5415 13 15.75C13 15.9586 12.9132 16.1577 12.7603 16.2996L9.52957 19.2996C9.22604 19.5815 8.75149 19.5639 8.46964 19.2603C8.18778 18.9568 8.20536 18.4823 8.50889 18.2004L11.1478 15.75L8.50889 13.2996Z"/>
</svg>

<svg xmlns="http://www.w3.org/2000/svg" width="24" height="24" viewBox="0 0 24 24"><path fill-rule="evenodd" d="M3 3a2 2 0 012-2h9.982a2 2 0 011.414.586l4.018 4.018A2 2 0 0121 7.018V21a2 2 0 01-2 2H4.75a.75.75 0 010-1.5H19a.5.5 0 00.5-.5V8.5h-4a2 2 0 01-2-2v-4H5a.5.5 0 00-.5.5v6.25a.75.75 0 01-1.5 0V3zm12-.5v4a.5.5 0 00.5.5h4a.5.5 0 00-.146-.336l-4.018-4.018A.5.5 0 0015 2.5z"/><path d="M4.53 12.24a.75.75 0 01-.039 1.06l-2.639 2.45 2.64 2.45a.75.75 0 11-1.022 1.1l-3.23-3a.75.75 0 010-1.1l3.23-3a.75.75 0 011.06.04zm3.979 1.06a.75.75 0 111.02-1.1l3.231 3a.75.75 0 010 1.1l-3.23 3a.75.75 0 11-1.021-1.1l2.639-2.45-2.64-2.45z"/></svg>
